!!!OTL: Jaegers Beruf.
!!!ARE: Europa, Mitteleuropa, Deutschland
!!!SCT: A0447
!!!TXL: @@GMH
!!!YEM: Copyright 1995, estate of Helmut Schaffrath.
**kern	**text
*M4/2	*
*met(c|)	*
*clefC3	*
*k[]	*
*G:mix	*
=1	=1
!LO:TX:a:t=mixolyd.	!
1ryy	I.
2ryy	.
{2G	Jch
=2	=2
2G	bin
2A	ein
2B	jä-
2G	-ger
=3	=3
1d	vn-
1c	-ver-
=4	=4
1B	-ʒagt,
2r}	.
{2B	blaß
=5	=5
2c/	auff
2B	meim
1.f	horn,
=6	=6
.	.
2d	hat
*lig	*
2f	nie
2g	.
*Xlig	*
=7	=7
1e	ver-
1d	-ſagt,
=8	=8
2r}	.
{2d	mit
2d	groſ-
2d	-ſem
=9	=9
1.f	ſchal,
2d	in
=10	=10
*lig	*
1.g	berg
4f	.
4e	.
=11	=11
2f	.
2g	.
*Xlig	*
1e	vnd
=12	=12
1d	thal,
2r}	.
{2G	im
=13	=13
2B	rau-
2c/	-chen
1d	hag,
=14	=14
2r	.
2G	ʒwo
2B	ſtund
2A	im
=15	=15
1G	tag,
2r}	.
{2g	thu
=16	=16
2g	ich
2g	das
1f	wild
=17	=17
2e	ni-
2d	-der-
4c/	-ſchie-
4B	.
4A	.
4G	.
=18	=18
1A	.
1G	-ßen,
=19	=19
2r}	.
{2g	laß
2g	mich
2g	keinr
=20	=20
1f	mü-
2e	-he
2d	ver-
=21	=21
4c/	-drie-
4B	.
4A	.
4G	.
1A	.
=22	=22
0G/ll}	-ßen.
==	==
!!!GTL: Jägerlieder und Jägerromanzen
!!!AGN: Romanze, Ballade, Lied, Jaegerlied
!! 68 Lieder. Nuernberg bei Berg und Newber 1549 No. 12.
!!!ONB: ESAC (Essen Associative Code) Database: ALTDEU
!!!AMT: simple quadruple
!!!AIN: vox
!!!EED: Helmut Schaffrath
!!!EEV: 1.0
!!!RDF**kern: l = terminal long
!!!AMD: Mixolydian
!!!URL-scan: https://rosdok.uni-rostock.de/mcrviewer/recordIdentifier/rosdok_ppn738218359/iview2/phys_0625.iview2?x=-27.342981878423416&y=407.868326859083&scale=0.6340035897852&rotation=0&layout=singlePageLayout&logicalDiv=log_0016
!!!ENC: Anna Maria Matuszewska
!!!EEV: 2024/18/03
*-	*-
